app/dist/common/images/american-software.svg

<svg height="18" viewBox="0 0 18 18" width="18" xmlns="http://www.w3.org/2000/svg"><path d="m0 0h18v18h-18z" fill="#004e96"/><path d="m4 13 5-9 5 9zm4.33-4.5.67-1.5.67 1.5zm-.5 1-.83 1.5h4l-.83-1.5zm.47-5.5-4.3 7.55v-1.75l1.79-3.2-.9-.58zm1.4 0h1.08l2.32 4h.9v3.7l-4.29-7.7z" fill="#fff" fill-rule="evenodd"/></svg>

<!-- by TradingView --><svg width="18" height="18" viewBox="0 0 18 18" xmlns="http://www.w3.org/2000/svg"><path fill="#004E96" d="M0 0h18v18H0z"/><path fill-rule="evenodd" d="m4 13 5-9 5 9H4Zm4.33-4.5L9 7l.67 1.5H8.33Zm-.5 1L7 11h4l-.83-1.5H7.83ZM8.3 4 4 11.55V9.8l1.79-3.2-.9-.58L8.3 4ZM9.7 4h1.08l2.32 4H14v3.7L9.71 4Z" fill="#fff"/></svg>
